X: 22795
T: Lanigan's Ball
R: jig
M: 6/8
K: Edorian
|:EBE G2A|~B3 Bcd|DFD F2G|AdB AFD|
EBE G2A|~B3 Bcd|DFD AdB|AFD E3:|
|:~g3 fed|edB BAB|~g3 fef|afd d2f|
~g3 fed|edB BAB|dcB AFD|~E3 ~E3:|
|:eBe f2g|a2a gfe|B2e f2g|a2a bag|
eBe f2g|a2a g2f|ede fga|1 bag fed:|2 bag e3||

